svg/material-icons/online_prediction/materialiconsround/24px.svg

<svg xmlns="http://www.w3.org/2000/svg" width="24" height="24" viewBox="0 0 24 24"><path d="M15.5 11.5c0 2-2.5 3.5-2.5 5h-2c0-1.5-2.5-3-2.5-5C8.5 9.57 10.07 8 12 8s3.5 1.57 3.5 3.5zm-2.5 6h-2v.5c0 .55.45 1 1 1s1-.45 1-1v-.5zm9-5.5c0-2.46-.89-4.71-2.36-6.45a.759.759 0 0 0-1.12-.06c-.27.27-.3.71-.06 1A8.444 8.444 0 0 1 20.5 12c0 2.1-.77 4.03-2.04 5.52-.25.29-.21.73.06 1 .32.32.83.28 1.12-.06 1.47-1.75 2.36-4 2.36-6.46zM3.5 12c0-2.1.77-4.03 2.04-5.52.25-.29.21-.73-.06-1a.767.767 0 0 0-1.12.06C2.89 7.29 2 9.54 2 12s.89 4.71 2.36 6.46c.29.34.8.38 1.12.06.27-.27.3-.71.06-1A8.49 8.49 0 0 1 3.5 12zm14 0c0 1.28-.44 2.47-1.18 3.41-.23.29-.2.71.07.98.32.32.85.29 1.13-.07A7.05 7.05 0 0 0 19 12c0-1.63-.56-3.13-1.49-4.31a.755.755 0 0 0-1.13-.07c-.26.26-.3.68-.07.98.75.93 1.19 2.12 1.19 3.4zm-9.88 4.38c.26-.26.3-.68.07-.98A5.405 5.405 0 0 1 6.5 12c0-1.28.44-2.47 1.18-3.41.23-.29.2-.71-.07-.98a.76.76 0 0 0-1.12.07A6.996 6.996 0 0 0 5 12c0 1.63.56 3.13 1.49 4.32.28.35.81.38 1.13.06z"/></svg>

<svg xmlns="http://www.w3.org/2000/svg" enable-background="new 0 0 24 24" height="24" viewBox="0 0 24 24" width="24"><g><rect fill="none" height="24" width="24"/><path d="M15.5,11.5c0,2-2.5,3.5-2.5,5h-2c0-1.5-2.5-3-2.5-5C8.5,9.57,10.07,8,12,8S15.5,9.57,15.5,11.5z M13,17.5h-2V18 c0,0.55,0.45,1,1,1h0c0.55,0,1-0.45,1-1V17.5z M22,12c0-2.46-0.89-4.71-2.36-6.45c-0.29-0.34-0.8-0.38-1.12-0.06l0,0 c-0.27,0.27-0.3,0.71-0.06,1C19.73,7.97,20.5,9.9,20.5,12c0,2.1-0.77,4.03-2.04,5.52c-0.25,0.29-0.21,0.73,0.06,1l0,0 c0.32,0.32,0.83,0.28,1.12-0.06C21.11,16.71,22,14.46,22,12z M3.5,12c0-2.1,0.77-4.03,2.04-5.52c0.25-0.29,0.21-0.73-0.06-1l0,0 C5.17,5.17,4.65,5.2,4.36,5.54C2.89,7.29,2,9.54,2,12c0,2.46,0.89,4.71,2.36,6.46c0.29,0.34,0.8,0.38,1.12,0.06l0,0 c0.27-0.27,0.3-0.71,0.06-1C4.27,16.03,3.5,14.1,3.5,12z M17.5,12c0,1.28-0.44,2.47-1.18,3.41c-0.23,0.29-0.2,0.71,0.07,0.98l0,0 c0.32,0.32,0.85,0.29,1.13-0.07C18.44,15.13,19,13.63,19,12c0-1.63-0.56-3.13-1.49-4.31c-0.28-0.36-0.81-0.39-1.13-0.07l0,0 c-0.26,0.26-0.3,0.68-0.07,0.98C17.06,9.53,17.5,10.72,17.5,12z M7.62,16.38L7.62,16.38c0.26-0.26,0.3-0.68,0.07-0.98 C6.94,14.47,6.5,13.28,6.5,12c0-1.28,0.44-2.47,1.18-3.41c0.23-0.29,0.2-0.71-0.07-0.98l0,0C7.3,7.3,6.77,7.33,6.49,7.68 C5.56,8.87,5,10.37,5,12c0,1.63,0.56,3.13,1.49,4.32C6.77,16.67,7.3,16.7,7.62,16.38z"/></g></svg>
